X:1
T:ssb
T:The Star Spangled Banner
%%score 1 2 3
L:1/8
Q:1/4=92
M:3/4
K:Ab
V:1 treble transpose=-2 nm="B♭ Trumpet" snm="B♭ Tpt."
V:2 treble transpose=-2 nm="B♭ Trumpet" snm="B♭ Tpt."
V:3 bass nm="Trombone" snm="Tbn."
V:1
[K:Bb]!f! (F>D) |: B,2 D2 F2 | B4 d>c | B2 D2 =E2 | F4 FF | d3 c B2 | A4 GA | B2 B2 F2 |1 %8
 D2 B,2 F>D :|2 D2 B,2!mf! dd || d2 e2 f2 | f4 ed | c2 d2 e2 | e4 e2 | d3 c B2 | A4 GA | %16
 B2 D2 =E2 | F4!f![Q:1/4=84] F2 | B2 B2 (BA) | G2 G2 G2 | c2 (ed) (cB) | %21
 (B2 !fermata!A2)[Q:1/4=72] FF |!<(! (B3 c) de!<)! | !fermata!f4[Q:1/4=64] Bc | d3 e c2 | B6 |] %26
V:2
[K:Bb]!f! (F>D) |: B,2 B,2 C2 | G4 A>A | G2 B,2 C2 | C4 EE | B3 A F2 | F4 FF | F2 B2 F2 |1 %8
 D2 B,2 F>D :|2 D2 B,2!mf! FF || B2 c2 d2 | d4 cB | A2 B2 c2 | c4 A2 | B3 F F2 | F4 FF | %16
 F2 B,2 C2 | C4!f! C2 | F2 F2 F2 | E2 E2 F2 | E2 (GF) (ED) | (D2 !fermata!C2) CC |!<(! F4 FG!<)! | %23
 !fermata!F4 DE | F3 G E2 | D6 |] %26
V:3
!f! (E>C) |: A,2 E,2 G,2 | C4 =E,>E, | F,2 F,2 F,2 | G,4 G,G, | A,3 B, C2 | B,4 B,B, | C2 A,2 E2 |1 %8
 C2 A,2 E>C :|2 C2 A,2!mf! A,A, || A,2 A,2 A,2 | A,4 B,A, | E,2 E,2 G,2 | G,4 B,2 | E3 D C2 | %15
 B,4 B,B, | C2 F,2 A,2 | G,4!f! G,2 | C2 C2 C2 | A,2 A,2 =A,2 | F,2 B,=A, D,=D, | %21
 !fermata!E,4 G,G, |!<(! A,3 G, A,B,!<)! | !fermata!C4 CA, | A,3 A, G,2 | E,6 |] %26

